X:1
T:Because Him Is A Baby
T:Because Him Is A Baby
T:Bob Merrill
C:Bob Merrill
Z:All Rights Reserved
L:1/4
M:3/4
K:Bb
V:1 treble 
%%MIDI program 52
V:1
 F |:"Bb" ^E2 F | B,2 F | ^E2 F | B,2 F |"Eb" G2 E | G2 E |"Bb" F D2- | D2 B, |"Eb" G2 ^F | G2 B | %11
w: A|lit- tle|girl with|bows and|curls, Kept|ask- ing|ev- ery|la- dy,|* “My|dol- ly’s|gone, can|
w: |eyes are|blue, my|doll's were|too, I|cry since|she's been|miss ing.|* O|la- dy|please, just|
w: |when I|find that|doll of|mine, I'll|make a|pro- mise,|la- dy.|* I'll|let you|play with|
"Bb" F G"Dm" F |"G7" D2 D |"C7" C2 F |"F7" E2 D |"Bb" C B,2- | B,2 F | D2 F | B2 F |"F7" A G F | %20
w: I walk a-|long, And|rock- a-|bye your|ba- by?”|* Him|can- not|walk, him|can’t ev- en|
w: one lit- tle|squeeze, Or|could I|may- be|kiss him?|||||
w: dol- ly all|day, if|I can|hold your|ba- by.-|||||
 C2 D | E2 F | A2 G | F"Bb" D2- | D2 F | D2 F | B2 B |"Eb" c B A | G2 B |"F7" A2 F | A2 F |1 %31
w: talk, But|can I|hold him,|la- dy?|* Him’s|nose is|red, no|hair on him|head, Be-|cause him|is a|
w: |||||||||||
w: |||||||||||
"Bb" F B2- || B2 F :|3"Bb" F B2- || B3 |] %35
w: ba- by||ba- by.-||
w: |* 2.Him's|||
w: |* 3.Now|||

